!!!OTL: Wilhelmus van Nassouwen. / c. Entstellte Melodie bei Melchior Franck, Reuterliedlien 1603 No. 24
!!!ARE: Europa, Mitteleuropa, Deutschland
!!!SCT: A0410
!!!TXL: @@NDS
!!!YEM: Copyright 1995, estate of Helmut Schaffrath.
**kern	**text
*M4/4	*
*met(c)	*
*k[b-]	*
*F:	*
{4c	Wil-
=1	=1
4f	-hel-
4f	-mus
4g	von
4g	Naſ-
=2	=2
8a	-ſau-
8g	-e
8a	bin
8g	ich
4f	von
8cc/L	deut-
8b-/J	.
=3	=3
4a	.
8gL	.
8fJ	.
4a	.
4g	-ſchem
=4	=4
2f	Blut,}
4r}	.
{4c	Dem
=5	=5
4f	Va-
4f	-ter-
4g	-land
4g	ge-
=6	=6
8a	treu-
8g	-e
8a	bleib
8g	ich
4f	bis
8cc/L	in
8b-/J	.
=7	=7
4a	.
8gL	.
8fJ	.
4a	.
4g	den
=8	=8
2f	Tod.}
4r}	.
{4f	Ein
=9	=9
4cc	Prin-
4cc	-ʒe
4b-	von
4b-	O-
=10	=10
4a	-ra-
4g	-ni-
4a	-en
4f	bin
=11	=11
8b-/	ich
8a	frei
8aL	un-
16g	.
16fJ	.
4g	.
4a	-ver-
=12	=12
2g	-kehrt,
4r}	.
{4a	den
=13	=13
4f	Kö-
4a	-nig
4g	von
4f	Hi-
=14	=14
4a	-ſpa-
4g	-ni-
4f	-en
4f}	hab
=15	=15
{8dL	ich
8e	.
8f	.
8dJ	.
8eL	.
8f	.
8g	.
8eJ	.
=16	=16
8fL	.
8g	.
8a	.
8fJ	.
8gL	.
8a	.
8b-	.
8gJ}	.
=17	=17
{4a	.
4f	all-
4f	-ʒeit
4e	ge-
=18	=18
!LO:TX:a:t=P:1f in the source:problem	!
!LO:N:vis=1	!
2.f}	-ehrt.
==	==
!!!GTL: Einige historisch-politische Lieder
!!!AGN: Romanze, Ballade, Lied, Kriegslied
!! (=A0409C)M. Franck Reuterliedlein 1603 No. 24.
!!!ONB: ESAC (Essen Associative Code) Database: ALTDEU
!!!AMT: simple quadruple
!!!AIN: vox
!!!EED: Helmut Schaffrath
!!!EEV: 1.0
!!@@COMMENT:"Oberstimme des vierstimmigen Satzes."
!!@@END:
!!!URL-scan: https://rosdok.uni-rostock.de/mcrviewer/recordIdentifier/rosdok_ppn738218359/iview2/phys_0583.iview2?x=211.1906371744103&y=606.0474065169692&scale=0.7083010262257697&rotation=0&layout=singlePageLayout
!!!ENC: Anna Maria Matuszewska
!!!EEV: 2024/15/03
*-	*-
